X: 12645
T: Farmers' Jamboree
R: jig
M: 6/8
K: Gmajor
|:B2 c|ded cBA|G2 B D2 B|B^AB dcB|A3 AA/B/c|
d2 d cBA|GDB D2 g|fed cc/B/A|G3:|
|:B2 c|dBd gf/e/d|e^ce a2 g|f2 d cde|d3 B2 c|
dB/c/d gdB|ec/d/e aeg|fed cAF|G3:|

